X:1
T:Salut  d'Amour
T:Edward Elgar Arr.: Fabian Payr 
%%score 1 ( 2 3 4 5 )
L:1/8
Q:1/4=96
M:2/4
K:D
V:1 treble nm="Bratsche"
V:2 treble-8 nm="Gitarre"
V:3 treble-8 
V:4 treble-8 
V:5 treble-8 
V:1
"^Andantino." z4 | z4 |:"^dolce"!pp! (F2 A,F) |"^legatiss." (ED)C!<(!(D!<)! | G2) G2 | %5
!>(! (G2!>)! A,) z | (F2 ^A,F) | (ED)C!<(!(D!<)! | E2) E2 |[Q:1/4=80]"^80"!>(! (E3!>)! ^E) | %10
[Q:1/4=96]"^96" (F2 A,"^cresc."F) | (ED)C!<(!(D!<)! |[Q:1/4=88]"^88" B2) !tenuto!B2 | %13
[Q:1/4=80]"^80"!>(! (!fermata!B2 !tenuto!A!tenuto!G)!>)! | %14
!p![Q:1/4=92]"^92" (F2 !tenuto!E!tenuto!D) |[Q:1/4=86]"^86""_dim."{/D} (B,2 C2) |1 %16
[Q:1/4=80]"^80"!<(! D4-!<)! |[Q:1/4=72]"^72" D2!>(! A,2!>)! :|2"_dim."[Q:1/4=80]"^80"!>(! D4- | %19
[Q:1/4=72]"^72" D4!>)! ||!pp![Q:1/4=92]"^92"{/D} (=F2 ED) |[Q:1/4=96]"^96" (_B,2 =CD) | (E2 D=C) | %23
 (A,2 _B,"^poco cresc."=C) | (D2 E=F) | (G2 A_B) | %26
[Q:1/4=84]"^84"!<(! (=c2!<)!"^ten."!>(!{/c} ed)!>)! |[Q:1/4=72]"^72"!>(! (=c3!>)! _B) | %28
!p!"_cresc. molto"[Q:1/4=92]"^92" (A2 G=F) |[Q:1/4=96]"^96" (D2 E=F) |{/=F} (AG) FE | %31
[Q:1/4=86]"^86" (C2[Q:1/4=80]"^80" DE) |!p![Q:1/4=70]"^70" (=F2 GA) | %33
"^poco rit."[Q:1/4=60]"^60"!>(! (_B_B,)!>)!!pp![Q:1/4=36]"_36" (!fermata!=F>E) | %34
[Q:1/4=96]"^Tempo primo.""_dolcissimo"!pp! (D2 CB,) | (A,2 ^G,A,) | (B,2 G,F,) | (E,2 ^D,E,) | %38
 G,4- | G,2 (^DE) |[Q:1/4=84]"^84" (G3 B) |!f!"^rit."[Q:1/4=72]"^72"!>(! (B2 AG)!>)! | %42
!p![Q:1/4=96]"^Tempo primo." (F2 A,F) | (ED)C!<(!(D!<)! | G2) G2 |!>(! (G2!>)! A,) z | (F2 ^A,F) | %47
 (ED)C!<(!(D!<)! | E2) E2 |[Q:1/4=80]"^80"!>(! (E3 ^E)!>)! |[Q:1/4=96]"^96"!pp! (F2 A,F) | %51
 (ED)C!<(!(D!<)! |[Q:1/4=88]"^88" B2) B2 |"^dim."[Q:1/4=76]"^76" BB, (CD) | %54
"^dolciss."[Q:1/4=96]"^96" G2 (ED) | (=C_B,)[Q:1/4=100]"^100" (E,>=B,) | B,2 (A,F,) | %57
!<(! (E,!<)!D,)[Q:1/4=104]"^104" (A,>_B,) |!ff! G"^string." (E2 D) | %59
 (=C_B,)[Q:1/4=92]"^92"!<(! (E,>!<)!=B,) |"^ten." B,2!>(! (A,F,)!>)! | %61
[Q:1/4=84]"^84" (E,D,)!p!"^accel. e cresc."[Q:1/4=96]"^96" (A,>^A,) | %62
[Q:1/4=100]"^100" (B,G,)[Q:1/4=104]"^104"(A,^A,) |[Q:1/4=108]"^108" (B,G)(FE) | %64
!<(! (D^A,)(B,!<)!C) |"^rit."[Q:1/4=96]"^96" (Dd)[Q:1/4=88]"^88"(cB) | %66
!<(! AC!<)![Q:1/4=84]"^84"!>(!(ED)!>)! | %67
[Q:1/4=76]"^76"!<(! (CA)!<)!!ff![Q:1/4=32]"^32"!>(! (!fermata!A>F)!>)! | %68
!p!"^rit. molto"[Q:1/4=80]"^80" (F2 E2 |"^dim."[Q:1/4=72]"^72" B,2 C2) | %70
!pp!"^Tempo più lento."[Q:1/4=96]"^96"!<(! (D4-!<)! | D2 F,A,) |[Q:1/4=88]"^88"!<(! (^A,2 B,2 | %73
 ^B,2 C2)!<)! |[Q:1/4=96]"^96"!<(! (D4-!<)! | D2[Q:1/4=90]"^90" FA) | %76
[Q:1/4=84]"^84"!>(! (^A2"^poco rit."[Q:1/4=78]"^78" B2 | %77
[Q:1/4=72]"^72" ^B2!>)![Q:1/4=60]"^60" c2) |[Q:1/4=96]"^Tempo primo.""^sempre dim." d4- | d4- | %80
 d4- | d4- |[Q:1/4=86]"^86" d4- |[Q:1/4=76]"^76" d4- |[Q:1/4=40]"^40" d4- | d2 !fermata!z2 |] %86
V:2
!mf!"^II" z!>(! !2![Adf]2 [Adf] | z [Adf]2!>)! [Adf] |: z [Adf]2 [Adf] | z !1!!2!!4![Ada]2 [Ada] | %4
"^segue" z !0!!3!!4![Gdg]2 [Gdg] | z !1!!2!!4![Acg]2 [Acg] | z !2!!1![df]2 !4!!1![ef] | %7
!<(! z !4!!3![df]2 !2![Adf]!<)! | z !3!!4!!0![Ade]2 !1![^Gde] | z"^ten." !1!!2![Ace]2 !4![Ac=g] | %10
"^II" z [Adf]2"^cresc." [Adf] | z !1!!2!!4![Ada]2 [Ada] | %12
!<(! z"^III" !2![Bdg]2 !2!!3!!4![B^da]!<)! | z!>(! !4!gf!>)!e | %14
"^II" [=df]!3![FA] !0![GB]!3!!2![Bd] |!>(! !3!!2![Bg]2!>)!"^II" [Af]!4!!2![eg] |1 %16
 [df]2"^rit."!pp!"^III" !2![Bdg]2 |"^IV" [B=f^g]2 !1!!4![Aea]2 :|2!pp! [df]2"^rit." [Adf]2 | %19
"^III" !4![_Beg]2"^IV" [=B=f^g]2 ||"^2""^II" !2![A=c=f] [cf]2 [cf] | %21
 !3!!4!!1![_Bd=f] [Bdf]2 [Bdf] | !4!!1!!0![_B=ce] [Bce]2 [ce] | !2!!1!!0![A=ce] [Ace]2 [Ace] | %24
"^III" !4![_Bda] [Bdg]2 [Bdg] | [_B=ce]"^cresc." [Bce]2 [Bce] |!<(! !4!g =f2 f!<)! | %27
 !1!=f e2 !4!d |"^I"!<(! !2![A=c] [Ac=f]2 !1![A^c] | !2!!4![Ad] [Ad]2 [Ad]!<)! | %30
!f! !2!!3!!4![_Bdg] [Bdg]2 [Bdg] |!>(! !1!!2!!4![A^cg] [Acg]2 [Acg]!>)! | %32
"^V" !3!!2!!1![d=fa] [da]2 [dfa] |!pp!"^colla parte""^VI" !2![d=f_b] [dfb]2 !2!!4!!1![cga] | %34
 z"^II" [Ad^f]2 [Adf] | z !0!!2![Gce]2 [Gce] | z !3!!4!!2![FBd]2 [FB-d-] | %37
 [Bd]"^II" !4![GAc]2 [GAc] | z2!<(! !3!^de!<)! | !3!g4 | !3!g2!<(! ^de!<)! | %41
!>(! !4!=d'2!>(! !3!c'!4!b!>)!!>)! |!p! !4!a4 | z !1!!2![Ad]2 [Ad] | %44
"^dolce" z !3!!4![dg]!2!_B[dg] | !2!fe^de |!p! z [df]2 !4!!1![ef] | z !4!!3![df]2 !2![Adf] | %48
!<(! e!1!!4![^Gd] E!<)!d | c!>(![GB]AG!>)! |"^II" f3 z | z [Adf]2 !1![^Ad] | %52
 !1!d!2!B!<(!"^IV" [B^d]b!<)! |!>(! !4![Ba]!>)!!>(!!2!g e!>)!B | z !2!!3!!4![_Bdg][Bdg][Bdg] | %55
 [Gdg][Gdg]"^II" [Ac][Ac] |"^cresc." z [Ad][Ad][Ad] | z [Ad]!<(![Ad][Ad]!<)! | %58
 [_Bdg]"^string."[Bdg][Bdg][Bdg] | [Gdg][Gdg]"^II" [Ac][Ac] | z!>(! !1!!2![Ad]!4![Ada][Adf] | %61
 ed!>)! z !4!!2![Bd] | z [DGB] z !1!!2!!0![^DAB] | z!<(! !2![EGB]e[Bg]!<)! | %64
"^II" z !3!!2![F=df] z [FBf] |!f!"^rit.""^III" [=FBd]4 | !1![Ae]2 !1!!2![Ad]2 | %67
 !2![Gc]2!>(!"^I" !fermata!!4!!2![FA=c]2!>)! |!pp! [EGB]4 |"^IV"!>(! !2!!1![GB]2!>)! !3!^c2 | %70
{/d} !4!f2"^II" Af!pp! | !0!edc!<(!d!<)! | !4!g2 g2 |!>(! !4!g2!>)! fe |!ppp!{/d} f2"^II" Af | %75
 ed!<(!cd | !4!g2!<)! g2 |!>(! !4!g2!>)!!>(! fe |"^VII" d!>)! [FAd]2 [FAd] | %79
 [Adf] [Adf]2"^X"!>(! !3!!2!!1![dfa]!>)! |"^X" !2![fad']2 z2 |!pp! !arpeggio![A,FAdf]2 z2 | %82
"^rall.     -       -      -"!>(! [Fd]4 | [Fd]4 | !fermata![FAd]4- | [FAd]2!>)! !fermata!z2 |] %86
V:3
 D,4 | D,4 |: D,4 | !3!F,4 | !1!E,4 | !0!A,4 | x4 | x4 | !2!E,4 | x4 | x4 | x4 | x4 | !1!E,4 | %14
 A,4 | A,!1!E A, z |1 D, D2 D- | DD!3!CA, :|2 D D2 D- | D D2 D || !3!=C4 | !2!=C4 | !3!=C4 | %23
 !3!=C4 | =C4 | =C4 | !3!=C2 C2 | !3!=C2 C2 | !3!=F,4 | !3!=F,4 | !1!E,4 | A,4 | A,4 | A,4 | %34
 !0!A,4 | A,4 | A,4 | A,4 | !1!E,4 | A,4 | E,4 | A,4 | D,4 | !3!F,4 | !1!E,4 | A,4 | D2 !3!C2 | %47
 !1!B,4 | !2!E,2 E2 | A,4 | D,4 | F,4 | !3!G,2 F,2 | E,2 x2 | x4 | x4 | x4 | x4 | x4 | x4 | x4 | %61
 x4 | x4 | x4 | x4 | x4 | !4!=G,2 !3!^F,2 | !1!E,2 !fermata!^D,2 | !1!E,4 | A,4 | D,4 | !3!F,4 | %72
 !1!E,4 | A,4 | D,4 | F,4 | !1!E,4 | A,4 | D,4 | x4 | x4 | x4 | D,2 A,2 | D,2 A,2 | !fermata!D,4- | %85
 D,2 x2 |] %86
V:4
 x4 | x4 |: x4 | x4 | x4 | x4 | !0!D2 !3!C2 | !1!B,4 | x4 | A,3 z | D,4 | !3!F,4 | !3!G,2 !1!F,2 | %13
 x4 | x4 | x4 |1 x4 | x4 :|2 x4 | x4 || x4 | x4 | x4 | x4 | x4 | x4 | !2!!1![A=c]2 !1!!0![_A=B]2 | %27
 !4!_B B2 G | x4 | x4 | x4 | x4 | x4 | x4 | x4 | x4 | x4 | x4 | z !4!!2![G_B]2 !2![G=d] | x4 | %40
 z [G=B]2 [GB] | z !1!!2![Ag]2 !1!!2![Gc] | z !1!!2![Ad]2 [Ad] | x4 | x4 | z G2 G | x4 | x4 | x4 | %49
 x4 | z !2![Ad]2 [Ad] | x4 | x3 z | x3 z | !1!E,4 | E,2 !0!A,!4!G, | F,4 | F,4 | !1!E,4 | %59
 E,2 !0!A,!4!G, | !3!F,4 | [B,FB]2 !3!F,2 | G,2 !4!F,2 | !1!E,4 | B,2 A,2 | !4!^G,4 | x4 | x4 | %68
 x4 | x4 | z D3 | z A2 A | z !3![Gd]2 [Gd] | z !2![Gc]2 [Gc] | z D3 | z A2 A | z !3![Gd]2 [Gd] | %77
 z !2![Gc]2 G | x4 | x4 | x4 | D,2 z2 | x4 | x4 | x4 | x4 |] %86
V:5
 x4 | x4 |: x4 | x4 | x4 | x4 | x4 | x4 | x4 | x4 | x4 | x4 | x4 | x B2 B | x4 | x4 |1 x4 | x4 :|2 %18
 x4 | x4 || x4 | x4 | x4 | x4 | x4 | x4 | x4 | x4 | x4 | x4 | x4 | x4 | x4 | x4 | x4 | x4 | x4 | %37
 x4 | x4 | z !1![Gc]2 [Gc] | x4 | x4 | x4 | x4 | x4 | x4 | x4 | x4 | x/4x7/4 x2 | x4 | x4 | x4 | %52
 x4 | x4 | x4 | x4 | x4 | x4 | x4 | x4 | x4 | x4 | x4 | x4 | x4 | x4 | x4 | x4 | x4 | !4!f2 !0!e2 | %70
 x4 | x4 | x4 | x4 | x4 | x4 | x4 | x4 | x4 | x4 | x4 | x4 | x4 | x4 | x4 | x4 |] %86

